.local/share/icons/Gruvbox-Plus-Dark/mimetypes/scalable/application-vnd.tcpdump.pcap.svg

<svg width="256" height="256" viewBox="0 0 256 256" fill="none" xmlns="http://www.w3.org/2000/svg">
<g opacity="0.4" filter="url(#filter0_f)">
<path d="M55.0839 15.5636H155.608L216.009 75.7129L216.011 224.609C216.011 233.52 208.749 240.737 199.838 240.737H55.0838C46.1734 240.737 39 233.564 39 224.654V31.6474C39 22.737 46.1734 15.5636 55.0838 15.5636H55.0839Z" fill="#282828"/>
</g>
<path d="M55.0839 15H155.608L216.009 75.1493L216.011 224.045C216.011 232.956 208.749 240.174 199.838 240.174H55.0838C46.1734 240.174 39 233 39 224.09V31.0838C39 22.1734 46.1734 15 55.0838 15H55.0839Z" fill="#ebdbb2"/>
<path fill-rule="evenodd" clip-rule="evenodd" d="M155.608 20.3191H55.0839C49.1112 20.3191 44.3191 25.1111 44.3191 31.0838V224.09C44.3191 230.063 49.1111 234.855 55.0838 234.855H199.838C205.83 234.855 210.692 229.999 210.692 224.046V75.1493L155.608 20.3191ZM155.608 15H55.0839C46.1735 15 39 22.1734 39 31.0838V224.09C39 233 46.1734 240.174 55.0838 240.174H199.838C208.749 240.174 216.011 232.956 216.011 224.045L216.009 75.1493L155.608 15Z" fill="url(#paint0_linear)"/>
<path d="M115.152 68C103.051 68 90.9547 72.5986 81.7811 81.7958C63.4349 100.186 63.3921 130.301 81.7382 148.691C97.2815 164.274 121.286 166.335 139.401 155.505L169.62 185.195C173.127 188.701 180.838 189.284 184.992 184.844C189.146 180.405 188.949 173.415 184.709 169.176L155.304 140.046C166.479 121.836 164.207 97.5373 148.506 81.7958C139.332 72.6029 127.231 68 115.135 68H115.152ZM115.135 80.8572C123.88 80.8572 132.624 84.2129 139.349 90.9372C142.545 94.1069 145.081 97.8778 146.812 102.033C148.543 106.187 149.434 110.644 149.434 115.145C149.434 119.646 148.543 124.102 146.812 128.257C145.081 132.411 142.545 136.182 139.349 139.352C136.178 142.546 132.406 145.081 128.25 146.811C124.095 148.541 119.638 149.432 115.137 149.432C110.636 149.432 106.179 148.541 102.024 146.811C97.8682 145.081 94.0961 142.546 90.9247 139.352C87.7291 136.182 85.1928 132.411 83.4619 128.257C81.7311 124.102 80.84 119.646 80.84 115.145C80.84 110.644 81.7311 106.187 83.4619 102.033C85.1928 97.8778 87.7291 94.1069 90.9247 90.9372C97.6458 84.2172 106.395 80.8572 115.139 80.8572H115.135ZM104.915 85.1429C102.515 85.9701 100.184 87.0715 97.994 88.4986V102.286H110.852V85.1429H104.916H104.915ZM115.139 85.1429V89.4286H119.425V102.286H123.713V85.1429H115.139ZM127.998 86.1801V102.286H140.859V96.7015C139.863 95.3258 138.78 93.9972 137.536 92.7501C137.228 92.4415 136.893 92.1758 136.572 91.8801V98.0001H132.285V89.4286H133.592C131.844 88.157 129.97 87.0684 127.999 86.1801H127.998ZM102.28 89.4286H106.565V98.0001H102.28V89.4286ZM93.7061 91.8801C93.389 92.1758 93.0547 92.4415 92.7418 92.7501C91.4989 93.993 90.4147 95.3172 89.4204 96.693V102.286H93.7061V91.8801ZM85.1336 106.57V123.713H97.9929V106.57H85.1336ZM102.28 106.57V110.856H106.565V123.713H110.853L110.87 106.57H110.853H102.28ZM115.14 106.57V123.713H127.999V106.57H115.14ZM132.372 106.57V110.856H136.658V123.713H140.946V106.57H132.372ZM89.4214 110.856H93.7072V119.428H89.4214V110.856ZM119.427 110.856H123.713V119.428H119.427V110.856ZM86.1718 127.999C86.8338 129.485 87.6093 130.918 88.4914 132.285H89.4214V133.592C90.4238 134.991 91.5343 136.31 92.7429 137.535C93.0514 137.843 93.3857 138.109 93.7072 138.405V128H86.1718V127.999ZM97.994 127.999V141.786C100.156 143.183 102.481 144.31 104.916 145.142H110.853V127.999H97.9929H97.994ZM115.14 127.999V132.285H119.426V145.142H123.714V127.999H115.14ZM127.999 127.999V144.105C129.966 143.214 131.838 142.126 133.585 140.856H132.286V132.285H136.572V138.405C136.89 138.109 137.224 137.843 137.536 137.535C138.78 136.292 139.864 134.959 140.86 133.583V128H127.999V127.999ZM102.281 132.285H106.567V140.856H102.281V132.285Z" fill="url(#paint1_linear)"/>
<path opacity="0.25" d="M155.608 17V61.2306C155.608 70.141 162.867 77.1605 171.777 77.1605L216.009 77.1493V75.1493L155.608 17Z" fill="#282828"/>
<path d="M155.608 15V59.2306C155.608 68.141 162.867 75.1605 171.777 75.1605L216.009 75.1493L155.608 15Z" fill="url(#paint2_linear)"/>
<defs>
<filter id="filter0_f" x="23.8778" y="0.441412" width="207.255" height="255.418" filterUnits="userSpaceOnUse" color-interpolation-filters="sRGB">
<feFlood flood-opacity="0" result="BackgroundImageFix"/>
<feBlend mode="normal" in="SourceGraphic" in2="BackgroundImageFix" result="shape"/>
<feGaussianBlur stdDeviation="7.5611" result="effect1_foregroundBlur"/>
</filter>
<linearGradient id="paint0_linear" x1="127.506" y1="245.178" x2="127.506" y2="15" gradientUnits="userSpaceOnUse">
<stop offset="0.0217391" stop-color="#af3a03"/>
<stop offset="1" stop-color="#fe8019"/>
</linearGradient>
<linearGradient id="paint1_linear" x1="128" y1="190.667" x2="128" y2="68" gradientUnits="userSpaceOnUse">
<stop offset="0.0217391" stop-color="#af3a03"/>
<stop offset="1" stop-color="#fe8019"/>
</linearGradient>
<linearGradient id="paint2_linear" x1="185.808" y1="76.4974" x2="185.808" y2="15" gradientUnits="userSpaceOnUse">
<stop offset="0.0217391" stop-color="#af3a03"/>
<stop offset="1" stop-color="#fe8019"/>
</linearGradient>
</defs>
</svg>

<svg width="256" height="256" fill="none" version="1.1" viewBox="0 0 256 256" xmlns="http://www.w3.org/2000/svg">
  <path d="m55.08 15h100.5l60.4 60.15 2e-3 148.9c0 8.911-7.262 16.13-16.17 16.13h-144.8c-8.91 0-16.08-7.174-16.08-16.08v-193c0-8.91 7.173-16.08 16.08-16.08h1e-4z" fill="#ebdbb2"/>
  <path d="m155.6 20.32h-100.5c-5.973 0-10.76 4.792-10.76 10.76v193c0 5.973 4.792 10.76 10.76 10.76h144.8c5.992 0 10.85-4.856 10.85-10.81v-148.9l-55.08-54.83zm0-5.319h-100.5c-8.91 0-16.08 7.173-16.08 16.08v193c0 8.91 7.173 16.08 16.08 16.08h144.8c8.911 0 16.17-7.218 16.17-16.13l-2e-3 -148.9-60.4-60.15z" clip-rule="evenodd" fill="url(#paint0_linear)" fill-rule="evenodd"/>
  <path d="m115.2 68c-12.1 0-24.2 4.599-33.37 13.8-18.35 18.39-18.39 48.51-0.0429 66.9 15.54 15.58 39.55 17.64 57.66 6.814l30.22 29.69c3.507 3.506 11.22 4.089 15.37-0.351 4.154-4.439 3.957-11.43-0.283-15.67l-29.4-29.13c11.18-18.21 8.903-42.51-6.798-58.25-9.174-9.193-21.28-13.8-33.37-13.8h0.017zm-0.017 12.86c8.745 0 17.49 3.356 24.21 10.08 3.196 3.17 5.732 6.941 7.463 11.1 1.731 4.154 2.622 8.611 2.622 13.11s-0.891 8.957-2.622 13.11c-1.731 4.154-4.267 7.925-7.463 11.1-3.171 3.194-6.943 5.729-11.1 7.459-4.155 1.73-8.612 2.621-13.11 2.621s-8.958-0.891-13.11-2.621c-4.156-1.73-7.928-4.265-11.1-7.459-3.196-3.17-5.732-6.941-7.463-11.1-1.731-4.155-2.622-8.611-2.622-13.11s0.8911-8.958 2.622-13.11c1.731-4.155 4.267-7.926 7.463-11.1 6.721-6.72 15.47-10.08 24.21-10.08h-4e-3zm-10.22 4.286c-2.4 0.8272-4.731 1.929-6.921 3.356v13.79h12.86v-17.14h-5.937zm10.22 0v4.286h4.286v12.86h4.288v-17.14h-8.574zm12.86 1.037v16.11h12.86v-5.584c-0.996-1.376-2.079-2.704-3.323-3.951-0.308-0.3086-0.643-0.5743-0.964-0.87v6.12h-4.287v-8.572h1.307c-1.748-1.272-3.622-2.36-5.593-3.248h-1e-3zm-25.72 3.248h4.285v8.572h-4.285v-8.572zm-8.574 2.452c-0.3171 0.2957-0.6514 0.5614-0.9643 0.87-1.243 1.243-2.327 2.567-3.321 3.943v5.593h4.286v-10.41zm-8.572 14.69v17.14h12.86v-17.14h-12.86zm17.15 0v4.286h4.285v12.86h4.288l0.017-17.14h-8.59zm12.86 0v17.14h12.86v-17.14h-12.86zm17.23 0v4.286h4.286v12.86h4.288v-17.14h-8.574zm-42.95 4.286h4.286v8.572h-4.286v-8.572zm30.01 0h4.286v8.572h-4.286v-8.572zm-33.26 17.14c0.662 1.486 1.438 2.919 2.32 4.286h0.93v1.307c1.002 1.399 2.113 2.718 3.322 3.943 0.3085 0.308 0.6428 0.574 0.9643 0.87v-10.4h-7.535v-1e-3zm11.82 0v13.79c2.162 1.397 4.487 2.524 6.922 3.356h5.937v-17.14h-12.86 0.0011zm17.15 0v4.286h4.286v12.86h4.288v-17.14h-8.574zm12.86 0v16.11c1.967-0.891 3.839-1.979 5.586-3.249h-1.299v-8.571h4.286v6.12c0.318-0.296 0.652-0.562 0.964-0.87 1.244-1.243 2.328-2.576 3.324-3.952v-5.583h-12.86v-1e-3zm-25.72 4.286h4.286v8.571h-4.286v-8.571z" fill="url(#paint1_linear)"/>
  <path d="m155.6 17v44.23c0 8.91 7.259 15.93 16.17 15.93l44.23-0.0112v-2l-60.4-58.15z" fill="#282828" opacity=".25"/>
  <path d="m155.6 15v44.23c0 8.91 7.259 15.93 16.17 15.93l44.23-0.0112-60.4-60.15z" fill="url(#paint2_linear)"/>
  <defs>
    <linearGradient id="paint0_linear" x1="127.5" x2="127.5" y1="245.2" y2="15" gradientUnits="userSpaceOnUse">
      <stop stop-color="#af3a03" offset=".02174"/>
      <stop stop-color="#fe8019" offset="1"/>
    </linearGradient>
    <linearGradient id="paint1_linear" x1="128" x2="128" y1="190.7" y2="68" gradientUnits="userSpaceOnUse">
      <stop stop-color="#af3a03" offset=".02174"/>
      <stop stop-color="#fe8019" offset="1"/>
    </linearGradient>
    <linearGradient id="paint2_linear" x1="185.8" x2="185.8" y1="76.5" y2="15" gradientUnits="userSpaceOnUse">
      <stop stop-color="#af3a03" offset=".02174"/>
      <stop stop-color="#fe8019" offset="1"/>
    </linearGradient>
  </defs>
</svg>
